!!!OTL: Rache im Zweikampf Als jei will horen in dat lied,
!!!ARE: Europa, Mitteleuropa, Belgien, Bruessel, flaemisch
!!!YOR: 5, S. 98
!!    1795 aufgezeichnet (ca.) in Berlin
!!!SCT: Q2097
!!!YEM: Copyright 1995, estate of Helmut Schaffrath.
**kern
*ICvox
*Ivox
*M3/8
*k[f#c#]
*D:
{8A
=1
8d
8f#
8a
=2
4a
8a
=3
8b
8a
8g#
=4
4.a}
=5
{8a
8f#
8g
=6
8a
8f#
8a
=7
8b
8a
8g#
=8
4a}
{8d
=9
4e
8f#
=10
8g
8e
8e
=11
4f#
8a
=12
8a
8b}
{8a
=13
8a
8g
8f#
=14
4.f#
=15
4e}
{8d
=16
4e
8f#
=17
8g
8e
8g
=18
8f#
8a
8f#
=19
8d
8e}
{8f#
=20
8g
8e
8c#
=21
4d}
==
!!!AGN: Ballade, Frau in Maennerkleidung, Soldat, Betrug, Rache
!! Flaemische Fassung der Ballade.
!!    Vierte und sechste Zeile = Refrain auf sinnfreie Silben.
!!!ONB: ESAC (Essen Associative Code) Database: BALLADE
!!!AMT: simple triple
!!!AIN: vox
!!!EED: Helmut Schaffrath
!!!EEV: 1.0
*-
